src/shared/assets/icons/main-20-20.svg

<svg width="20" height="20" viewBox="0 0 20 20" xmlns="http://www.w3.org/2000/svg">
	<path
				d="M0.414747 9.83945L8.93886 0.818743L9.51022 0.213781C9.64041 0.0768506 9.81646 0 9.99996 0C10.1835 0 10.3595 0.0768506 10.4897 0.213781L19.5852 9.83945C19.7186 9.98014 19.824 10.1477 19.8952 10.3322C19.9665 10.5168 20.0021 10.7146 19.9999 10.9139C19.9911 11.7361 19.3447 12.3924 18.5682 12.3924H17.6306V20H2.36929V12.3924H1.41187C1.03464 12.3924 0.679472 12.2359 0.412542 11.9533C0.281107 11.8146 0.176968 11.6496 0.106155 11.468C0.0353432 11.2864 -0.000732422 11.0917 1.33514e-05 10.8952C1.33514e-05 10.4981 0.147818 10.1221 0.414747 9.83945ZM8.76458 18.3183H11.2353V13.5533H8.76458V18.3183ZM3.95764 10.7107V18.3183H7.35272V12.9927C7.35272 12.4765 7.7476 12.0584 8.23513 12.0584H11.7648C12.2523 12.0584 12.6472 12.4765 12.6472 12.9927V18.3183H16.0423V10.7107H18.1601L9.99776 2.07538L9.48816 2.61494L1.83764 10.7107H3.95764Z" />
</svg>

<svg width="20" height="20" xmlns="http://www.w3.org/2000/svg">
	<path
				d="M.415 9.84L8.939.818 9.51.214A.676.676 0 0110 0c.184 0 .36.077.49.214l9.095 9.625c.134.141.239.309.31.493.072.185.107.383.105.582-.009.822-.655 1.478-1.432 1.478h-.937V20H2.369v-7.608h-.957c-.377 0-.733-.156-1-.439a1.494 1.494 0 01-.306-.485A1.562 1.562 0 010 10.895c0-.397.148-.773.415-1.056zm8.35 8.478h2.47v-4.765h-2.47v4.765zm-4.807-7.607v7.607h3.395v-5.325c0-.517.395-.935.882-.935h3.53c.487 0 .882.418.882.935v5.325h3.395v-7.607h2.118L9.998 2.075l-.51.54-7.65 8.096h2.12z" />
</svg>
